assets/icons/qvision/pets.svg

<svg width="24" height="24" viewBox="0 0 24 24" fill="none" xmlns="http://www.w3.org/2000/svg">
<g clip-path="url(#clip0_147_4548)">
<path d="M4.5 12C5.88071 12 7 10.8807 7 9.5C7 8.11929 5.88071 7 4.5 7C3.11929 7 2 8.11929 2 9.5C2 10.8807 3.11929 12 4.5 12Z" fill="#323232"/>
<path d="M9 8C10.3807 8 11.5 6.88071 11.5 5.5C11.5 4.11929 10.3807 3 9 3C7.61929 3 6.5 4.11929 6.5 5.5C6.5 6.88071 7.61929 8 9 8Z" fill="#323232"/>
<path d="M15 8C16.3807 8 17.5 6.88071 17.5 5.5C17.5 4.11929 16.3807 3 15 3C13.6193 3 12.5 4.11929 12.5 5.5C12.5 6.88071 13.6193 8 15 8Z" fill="#323232"/>
<path d="M19.5 12C20.8807 12 22 10.8807 22 9.5C22 8.11929 20.8807 7 19.5 7C18.1193 7 17 8.11929 17 9.5C17 10.8807 18.1193 12 19.5 12Z" fill="#323232"/>
<path d="M17.34 14.86C16.47 13.84 15.74 12.97 14.86 11.95C14.4 11.41 13.81 10.87 13.11 10.63C13 10.59 12.89 10.56 12.78 10.54C12.53 10.5 12.26 10.5 12 10.5C11.74 10.5 11.47 10.5 11.21 10.55C11.1 10.57 10.99 10.6 10.88 10.64C10.18 10.88 9.6 11.42 9.13 11.96C8.26 12.98 7.53 13.85 6.65 14.87C5.34 16.18 3.73 17.63 4.03 19.66C4.32 20.68 5.05 21.69 6.36 21.98C7.09 22.13 9.42 21.54 11.9 21.54H12.08C14.56 21.54 16.89 22.12 17.62 21.98C18.93 21.69 19.66 20.67 19.95 19.66C20.26 17.62 18.65 16.17 17.34 14.86Z" fill="#323232"/>
</g>
<defs>
<clipPath id="clip0_147_4548">
<rect width="24" height="24" fill="white"/>
</clipPath>
</defs>
</svg>

<svg xmlns="http://www.w3.org/2000/svg" height="24" viewBox="0 0 24 24" width="24"><path d="M0 0h24v24H0z" fill="none"/><circle cx="4.5" cy="9.5" r="2.5"/><circle cx="9" cy="5.5" r="2.5"/><circle cx="15" cy="5.5" r="2.5"/><circle cx="19.5" cy="9.5" r="2.5"/><path d="M17.34 14.86c-.87-1.02-1.6-1.89-2.48-2.91-.46-.54-1.05-1.08-1.75-1.32-.11-.04-.22-.07-.33-.09-.25-.04-.52-.04-.78-.04s-.53 0-.79.05c-.11.02-.22.05-.33.09-.7.24-1.28.78-1.75 1.32-.87 1.02-1.6 1.89-2.48 2.91-1.31 1.31-2.92 2.76-2.62 4.79.29 1.02 1.02 2.03 2.33 2.32.73.15 3.06-.44 5.54-.44h.18c2.48 0 4.81.58 5.54.44 1.31-.29 2.04-1.31 2.33-2.32.31-2.04-1.3-3.49-2.61-4.8z"/></svg>
